sphido.svg

<svg xmlns="http://www.w3.org/2000/svg" xml:space="preserve" style="fill-rule:evenodd;clip-rule:evenodd;stroke-linejoin:round;stroke-miterlimit:2" viewBox="0 0 1050 230"><path d="M505.577 152.235h-3.792c-.152 0-.262-.034-.33-.102-.068-.068-.102-.178-.102-.33v-1.404c0-.152.034-.262.102-.33.068-.068.178-.102.33-.102h3.228c.104 0 .182-.034.234-.102a.393.393 0 0 0 .078-.246c0-.136-.026-.236-.078-.3-.052-.064-.13-.1-.234-.108l-1.8-.252c-.56-.08-1.01-.264-1.35-.552-.34-.288-.51-.768-.51-1.44v-1.26c0-.68.22-1.202.66-1.566.44-.364 1.048-.546 1.824-.546h3.36c.152 0 .262.034.33.102.068.068.102.178.102.33v1.428c0 .152-.034.262-.102.33-.068.068-.178.102-.33.102h-2.796a.293.293 0 0 0-.24.102.392.392 0 0 0-.084.258c0 .104.028.192.084.264a.32.32 0 0 0 .24.12l1.788.24c.56.08 1.012.264 1.356.552.344.288.516.768.516 1.44v1.26c0 .68-.222 1.202-.666 1.566-.444.364-1.05.546-1.818.546Zm6.084 0h-1.86c-.152 0-.262-.034-.33-.102-.068-.068-.102-.178-.102-.33v-7.776c0-.152.034-.262.102-.33.068-.068.178-.102.33-.102h3.672c1.088 0 1.832.216 2.232.648.4.432.6.996.6 1.692v1.536c0 .696-.2 1.26-.6 1.692-.4.432-1.144.648-2.232.648h-1.38v1.992c0 .152-.034.262-.102.33-.068.068-.178.102-.33.102Zm.408-6.396v1.812h1.08c.232 0 .384-.06.456-.18a.777.777 0 0 0 .108-.408v-.636a.777.777 0 0 0-.108-.408c-.072-.12-.224-.18-.456-.18h-1.08Zm7.776 6.396h-1.86c-.152 0-.262-.034-.33-.102-.068-.068-.102-.178-.102-.33v-7.776c0-.152.034-.262.102-.33.068-.068.178-.102.33-.102h1.86c.152 0 .262.034.33.102.068.068.102.178.102.33v2.604h2.004v-2.604c0-.152.034-.262.102-.33.068-.068.178-.102.33-.102h1.86c.152 0 .262.034.33.102.068.068.102.178.102.33v7.776c0 .152-.034.262-.102.33-.068.068-.178.102-.33.102h-1.86c-.152 0-.262-.034-.33-.102-.068-.068-.102-.178-.102-.33v-2.664h-2.004v2.664c0 .152-.034.262-.102.33-.068.068-.178.102-.33.102Zm7.056 0c-.152 0-.262-.034-.33-.102-.068-.068-.102-.178-.102-.33v-1.428c0-.152.034-.262.102-.33.068-.068.178-.102.33-.102h1.188v-4.032h-1.188c-.152 0-.262-.034-.33-.102-.068-.068-.102-.178-.102-.33v-1.452c0-.152.034-.262.102-.33.068-.068.178-.102.33-.102h5.112c.152 0 .262.034.33.102.068.068.102.178.102.33v1.452c0 .152-.034.262-.102.33-.068.068-.178.102-.33.102h-1.164v4.032h1.164c.152 0 .262.034.33.102.068.068.102.178.102.33v1.428c0 .152-.034.262-.102.33-.068.068-.178.102-.33.102h-5.112Zm11.496 0h-4.044c-.152 0-.262-.034-.33-.102-.068-.068-.102-.178-.102-.33v-7.776c0-.152.034-.262.102-.33.068-.068.178-.102.33-.102h4.044c1 0 1.742.2 2.226.6.484.4.726 1.016.726 1.848v3.744c0 .832-.242 1.448-.726 1.848-.484.4-1.226.6-2.226.6Zm-1.752-6.348v4.08h1.428c.192 0 .334-.048.426-.144.092-.096.138-.244.138-.444v-2.916c0-.2-.046-.346-.138-.438-.092-.092-.234-.138-.426-.138h-1.428Zm13.548 4.08c0 .368-.054.702-.162 1.002-.108.3-.3.556-.576.768-.276.212-.656.378-1.14.498-.484.12-1.098.18-1.842.18s-1.36-.06-1.848-.18-.87-.286-1.146-.498a1.675 1.675 0 0 1-.576-.768 2.942 2.942 0 0 1-.162-1.002v-4.092c0-.368.054-.702.162-1.002.108-.3.3-.558.576-.774.276-.216.658-.384 1.146-.504.488-.12 1.104-.18 1.848-.18s1.358.06 1.842.18.864.288 1.14.504c.276.216.468.474.576.774.108.3.162.634.162 1.002v4.092Zm-4.728-.432c0 .16.06.294.18.402.12.108.396.162.828.162.432 0 .708-.054.828-.162a.519.519 0 0 0 .18-.402v-3.228a.506.506 0 0 0-.18-.39c-.12-.108-.396-.162-.828-.162-.432 0-.708.054-.828.162a.506.506 0 0 0-.18.39v3.228Z" style="fill-rule:nonzero" transform="matrix(18.6556 0 0 18.0557 -9219.234 -2557.7)"/><path d="M20.66 248.527s54.315-16.649 64.706-27.034c10.441-10.434 10.441-27.27 0-37.704-10.39-10.409-27.257-10.419-37.668 0-10.39 10.438-27.038 64.738-27.038 64.738Z" style="fill:#ff2d55;fill-rule:nonzero" transform="scale(.60683 .58732) rotate(-45 207.73 226.397)"/><path d="m409.454 68.456.009 115.849-34.766 34.766 11.592 81.084s26.559-47.073 52.852-63.741l-1.858 9.786 37.826-1.972-2.345-10.327c35.035 13.715 52.553 66.254 52.553 66.254l11.58-81.092-34.759-34.758-.008-115.847L455.8-1.059l-46.346 69.515Zm46.343 98.985c8.63 0 15.636 7.006 15.636 15.636 0 8.629-7.006 15.636-15.636 15.636-8.63 0-15.636-7.007-15.636-15.636 0-8.63 7.006-15.636 15.636-15.636Zm0-50.165c8.63 0 15.636 7.007 15.636 15.636 0 8.63-7.006 15.636-15.636 15.636-8.63 0-15.636-7.006-15.636-15.636 0-8.629 7.006-15.636 15.636-15.636Zm0-50.834c8.63 0 15.636 7.006 15.636 15.636 0 8.629-7.006 15.635-15.636 15.635-8.63 0-15.636-7.006-15.636-15.635 0-8.63 7.006-15.636 15.636-15.636Z" style="fill:#ff2d55;fill-rule:nonzero" transform="matrix(.60683 0 0 .58732 -222.303 10.776)"/></svg>

<?xml version="1.0" encoding="UTF-8" standalone="no"?>
<!DOCTYPE svg PUBLIC "-//W3C//DTD SVG 1.1//EN" "http://www.w3.org/Graphics/SVG/1.1/DTD/svg11.dtd">
<svg width="100%" height="100%" viewBox="0 0 1050 230" version="1.1" xmlns="http://www.w3.org/2000/svg" xmlns:xlink="http://www.w3.org/1999/xlink" xml:space="preserve" xmlns:serif="http://www.serif.com/" style="fill-rule:evenodd;clip-rule:evenodd;stroke-linejoin:round;stroke-miterlimit:2;">
    <g transform="matrix(1,0,0,1,-1.07394,1)">
        <g transform="matrix(18.6556,0,0,18.0557,-9218.16,-2558.7)">
            <path d="M505.577,152.235L501.785,152.235C501.633,152.235 501.523,152.201 501.455,152.133C501.387,152.065 501.353,151.955 501.353,151.803L501.353,150.399C501.353,150.247 501.387,150.137 501.455,150.069C501.523,150.001 501.633,149.967 501.785,149.967L505.013,149.967C505.117,149.967 505.195,149.933 505.247,149.865C505.299,149.797 505.325,149.715 505.325,149.619C505.325,149.483 505.299,149.383 505.247,149.319C505.195,149.255 505.117,149.219 505.013,149.211L503.213,148.959C502.653,148.879 502.203,148.695 501.863,148.407C501.523,148.119 501.353,147.639 501.353,146.967L501.353,145.707C501.353,145.027 501.573,144.505 502.013,144.141C502.453,143.777 503.061,143.595 503.837,143.595L507.197,143.595C507.349,143.595 507.459,143.629 507.527,143.697C507.595,143.765 507.629,143.875 507.629,144.027L507.629,145.455C507.629,145.607 507.595,145.717 507.527,145.785C507.459,145.853 507.349,145.887 507.197,145.887L504.401,145.887C504.297,145.887 504.217,145.921 504.161,145.989C504.105,146.057 504.077,146.143 504.077,146.247C504.077,146.351 504.105,146.439 504.161,146.511C504.217,146.583 504.297,146.623 504.401,146.631L506.189,146.871C506.749,146.951 507.201,147.135 507.545,147.423C507.889,147.711 508.061,148.191 508.061,148.863L508.061,150.123C508.061,150.803 507.839,151.325 507.395,151.689C506.951,152.053 506.345,152.235 505.577,152.235Z" style="fill-rule:nonzero;"/>
            <path d="M511.661,152.235L509.801,152.235C509.649,152.235 509.539,152.201 509.471,152.133C509.403,152.065 509.369,151.955 509.369,151.803L509.369,144.027C509.369,143.875 509.403,143.765 509.471,143.697C509.539,143.629 509.649,143.595 509.801,143.595L513.473,143.595C514.561,143.595 515.305,143.811 515.705,144.243C516.105,144.675 516.305,145.239 516.305,145.935L516.305,147.471C516.305,148.167 516.105,148.731 515.705,149.163C515.305,149.595 514.561,149.811 513.473,149.811L512.093,149.811L512.093,151.803C512.093,151.955 512.059,152.065 511.991,152.133C511.923,152.201 511.813,152.235 511.661,152.235ZM512.069,145.839L512.069,147.651L513.149,147.651C513.381,147.651 513.533,147.591 513.605,147.471C513.677,147.351 513.713,147.215 513.713,147.063L513.713,146.427C513.713,146.275 513.677,146.139 513.605,146.019C513.533,145.899 513.381,145.839 513.149,145.839L512.069,145.839Z" style="fill-rule:nonzero;"/>
            <path d="M519.845,152.235L517.985,152.235C517.833,152.235 517.723,152.201 517.655,152.133C517.587,152.065 517.553,151.955 517.553,151.803L517.553,144.027C517.553,143.875 517.587,143.765 517.655,143.697C517.723,143.629 517.833,143.595 517.985,143.595L519.845,143.595C519.997,143.595 520.107,143.629 520.175,143.697C520.243,143.765 520.277,143.875 520.277,144.027L520.277,146.631L522.281,146.631L522.281,144.027C522.281,143.875 522.315,143.765 522.383,143.697C522.451,143.629 522.561,143.595 522.713,143.595L524.573,143.595C524.725,143.595 524.835,143.629 524.903,143.697C524.971,143.765 525.005,143.875 525.005,144.027L525.005,151.803C525.005,151.955 524.971,152.065 524.903,152.133C524.835,152.201 524.725,152.235 524.573,152.235L522.713,152.235C522.561,152.235 522.451,152.201 522.383,152.133C522.315,152.065 522.281,151.955 522.281,151.803L522.281,149.139L520.277,149.139L520.277,151.803C520.277,151.955 520.243,152.065 520.175,152.133C520.107,152.201 519.997,152.235 519.845,152.235Z" style="fill-rule:nonzero;"/>
            <path d="M526.901,152.235C526.749,152.235 526.639,152.201 526.571,152.133C526.503,152.065 526.469,151.955 526.469,151.803L526.469,150.375C526.469,150.223 526.503,150.113 526.571,150.045C526.639,149.977 526.749,149.943 526.901,149.943L528.089,149.943L528.089,145.911L526.901,145.911C526.749,145.911 526.639,145.877 526.571,145.809C526.503,145.741 526.469,145.631 526.469,145.479L526.469,144.027C526.469,143.875 526.503,143.765 526.571,143.697C526.639,143.629 526.749,143.595 526.901,143.595L532.013,143.595C532.165,143.595 532.275,143.629 532.343,143.697C532.411,143.765 532.445,143.875 532.445,144.027L532.445,145.479C532.445,145.631 532.411,145.741 532.343,145.809C532.275,145.877 532.165,145.911 532.013,145.911L530.849,145.911L530.849,149.943L532.013,149.943C532.165,149.943 532.275,149.977 532.343,150.045C532.411,150.113 532.445,150.223 532.445,150.375L532.445,151.803C532.445,151.955 532.411,152.065 532.343,152.133C532.275,152.201 532.165,152.235 532.013,152.235L526.901,152.235Z" style="fill-rule:nonzero;"/>
            <path d="M538.397,152.235L534.353,152.235C534.201,152.235 534.091,152.201 534.023,152.133C533.955,152.065 533.921,151.955 533.921,151.803L533.921,144.027C533.921,143.875 533.955,143.765 534.023,143.697C534.091,143.629 534.201,143.595 534.353,143.595L538.397,143.595C539.397,143.595 540.139,143.795 540.623,144.195C541.107,144.595 541.349,145.211 541.349,146.043L541.349,149.787C541.349,150.619 541.107,151.235 540.623,151.635C540.139,152.035 539.397,152.235 538.397,152.235ZM536.645,145.887L536.645,149.967L538.073,149.967C538.265,149.967 538.407,149.919 538.499,149.823C538.591,149.727 538.637,149.579 538.637,149.379L538.637,146.463C538.637,146.263 538.591,146.117 538.499,146.025C538.407,145.933 538.265,145.887 538.073,145.887L536.645,145.887Z" style="fill-rule:nonzero;"/>
            <path d="M550.193,149.967C550.193,150.335 550.139,150.669 550.031,150.969C549.923,151.269 549.731,151.525 549.455,151.737C549.179,151.949 548.799,152.115 548.315,152.235C547.831,152.355 547.217,152.415 546.473,152.415C545.729,152.415 545.113,152.355 544.625,152.235C544.137,152.115 543.755,151.949 543.479,151.737C543.203,151.525 543.011,151.269 542.903,150.969C542.795,150.669 542.741,150.335 542.741,149.967L542.741,145.875C542.741,145.507 542.795,145.173 542.903,144.873C543.011,144.573 543.203,144.315 543.479,144.099C543.755,143.883 544.137,143.715 544.625,143.595C545.113,143.475 545.729,143.415 546.473,143.415C547.217,143.415 547.831,143.475 548.315,143.595C548.799,143.715 549.179,143.883 549.455,144.099C549.731,144.315 549.923,144.573 550.031,144.873C550.139,145.173 550.193,145.507 550.193,145.875L550.193,149.967ZM545.465,149.535C545.465,149.695 545.525,149.829 545.645,149.937C545.765,150.045 546.041,150.099 546.473,150.099C546.905,150.099 547.181,150.045 547.301,149.937C547.421,149.829 547.481,149.695 547.481,149.535L547.481,146.307C547.481,146.155 547.421,146.025 547.301,145.917C547.181,145.809 546.905,145.755 546.473,145.755C546.041,145.755 545.765,145.809 545.645,145.917C545.525,146.025 545.465,146.155 545.465,146.307L545.465,149.535Z" style="fill-rule:nonzero;"/>
        </g>
        <g transform="matrix(0.606828,0,0,0.587315,-221.229,9.77637)">
            <g transform="matrix(0.707107,-0.707107,0.707107,0.707107,267.092,194.849)">
                <path d="M20.66,248.527C20.66,248.527 74.975,231.878 85.366,221.493C95.807,211.059 95.807,194.223 85.366,183.789C74.976,173.38 58.109,173.37 47.698,183.789C37.308,194.227 20.66,248.527 20.66,248.527Z" style="fill:rgb(255,45,85);fill-rule:nonzero;"/>
            </g>
            <path d="M409.454,68.456L409.463,184.305L374.697,219.071L386.289,300.155C386.289,300.155 412.848,253.082 439.141,236.414L437.283,246.2L475.109,244.228L472.764,233.901C507.799,247.616 525.317,300.155 525.317,300.155L536.897,219.063L502.138,184.305L502.13,68.458L455.8,-1.059L409.454,68.456ZM455.797,167.441C464.427,167.441 471.433,174.447 471.433,183.077C471.433,191.706 464.427,198.713 455.797,198.713C447.167,198.713 440.161,191.706 440.161,183.077C440.161,174.447 447.167,167.441 455.797,167.441ZM455.797,117.276C464.427,117.276 471.433,124.283 471.433,132.912C471.433,141.542 464.427,148.548 455.797,148.548C447.167,148.548 440.161,141.542 440.161,132.912C440.161,124.283 447.167,117.276 455.797,117.276ZM455.797,66.442C464.427,66.442 471.433,73.448 471.433,82.078C471.433,90.707 464.427,97.713 455.797,97.713C447.167,97.713 440.161,90.707 440.161,82.078C440.161,73.448 447.167,66.442 455.797,66.442Z" style="fill:rgb(255,45,85);fill-rule:nonzero;"/>
        </g>
    </g>
</svg>
